packages/tokens/icons/unicorn/size24Px.svg

<svg viewBox="0 0 24 24" fill="none" xmlns="http://www.w3.org/2000/svg" width="1em" height="1em"><path d="M12.6952 13.2233C12.6952 14.3342 12.6494 15.6484 14.5 17.5C15.4104 18.4109 15.8716 19.4807 16.1205 20.313C16.3012 20.9175 15.8077 21.4999 15.1767 21.4999L4.42367 21.4999C3.98571 21.4999 3.5974 21.2147 3.50679 20.7863C3.34254 20.0096 3.22277 19.0759 3.151 18.4078C3.09872 17.9212 3.0719 17.427 3.0719 16.9265C3.0719 9.35911 8.93666 3.5 16.5 3.5C16.7483 3.5 16.9952 3.50661 17.2403 3.51968L14.9159 5.83647L20.8162 11.3864C21.4903 12.0204 21.5801 13.0597 21.0249 13.8L20.8474 14.0366C20.6279 14.3294 20.287 14.5063 19.9212 14.5172V14.5172C19.5787 14.5274 19.2481 14.391 19.0124 14.1423L18.6494 13.7593L15.5 12.5" stroke="currentColor" stroke-linecap="round" stroke-linejoin="round"/><path d="M21.0045 2.91127C21.0341 2.88867 21.0756 2.89161 21.1018 2.91817C21.128 2.94472 21.1309 2.98679 21.1086 3.01678L17.4585 7.9261L16.1607 6.61072L21.0045 2.91127Z" stroke="currentColor"/><path d="M10.5572 8.24951C9.6476 9.84628 10.1874 11.8881 11.7628 12.81C12.9845 13.5248 14.4702 13.3564 15.5 12.5001" stroke="currentColor" stroke-linecap="round"/></svg>

<svg xmlns="http://www.w3.org/2000/svg" fill="none" viewBox="0 0 24 24" width="1em" height="1em"><path stroke="currentColor" stroke-linecap="round" stroke-linejoin="round" d="M12.695 13.223c0 1.111-.046 2.425 1.805 4.277.91.91 1.372 1.98 1.62 2.813.181.605-.312 1.187-.943 1.187H4.424c-.438 0-.827-.285-.917-.714a25.549 25.549 0 0 1-.356-2.378c-.052-.487-.08-.981-.08-1.482C3.072 9.36 8.938 3.5 16.5 3.5c.248 0 .495.007.74.02l-2.324 2.316 5.9 5.55c.674.634.764 1.674.209 2.414l-.178.237c-.22.292-.56.47-.926.48v0a1.203 1.203 0 0 1-.909-.375l-.363-.383L15.5 12.5"/><path stroke="currentColor" d="M21.005 2.911a.074.074 0 0 1 .097.007.077.077 0 0 1 .007.099l-3.65 4.91L16.16 6.61l4.843-3.7Z"/><path stroke="currentColor" stroke-linecap="round" d="M10.557 8.25c-.91 1.596-.37 3.638 1.206 4.56a3.26 3.26 0 0 0 3.737-.31"/></svg>
